packages/nodes-base/nodes/Magento/magento.svg

<svg xmlns="http://www.w3.org/2000/svg" width="256" height="303" preserveAspectRatio="xMidYMid"><path fill="#EC6737" d="M144.852 90.67v172.192l-16.933 10.349-16.946-10.404V90.803l-43.878 27.016v147.255l60.824 37.217 61.339-37.482V117.725zM127.919 0 0 77.502v147.274l33.223 19.572V97.06l94.722-57.596 94.81 57.512.391.223-.042 146.929L256 224.776V77.502z"/></svg>

<?xml version="1.0" encoding="UTF-8" standalone="no"?>
<svg width="256px" height="303px" viewBox="0 0 256 303" version="1.1" xmlns="http://www.w3.org/2000/svg" xmlns:xlink="http://www.w3.org/1999/xlink" preserveAspectRatio="xMidYMid">
    <g>
        <path d="M144.852,90.67 L144.852,262.862 L127.919,273.211 L110.973,262.807 L110.973,90.803 L67.095,117.819 L67.095,265.074 L127.919,302.291 L189.258,264.809 L189.258,117.725 L144.852,90.67 L144.852,90.67 Z M127.919,0 L0,77.502 L0,224.776 L33.223,244.348 L33.223,97.06 L127.945,39.464 L222.755,96.976 L223.146,97.199 L223.104,244.128 L256,224.776 L256,77.502 L127.919,0 L127.919,0 Z" fill="#EC6737"></path>
    </g>
</svg>
